Newaita-dark/actions/22/dialog-xml-editor.svg

<?xml version="1.0" encoding="UTF-8"?>
<svg xmlns="http://www.w3.org/2000/svg" xmlns:xlink="http://www.w3.org/1999/xlink" width="22pt" height="22pt" viewBox="0 0 22 22" version="1.1">
<g id="surface1">
<path style=" stroke:none;fill-rule:nonzero;fill:rgb(47.058824%,56.470591%,61.176473%);fill-opacity:0.984314;" d="M 13.503906 1.421875 C 13.988281 1.550781 14.277344 2.050781 14.148438 2.535156 L 9.441406 20.109375 C 9.308594 20.59375 8.8125 20.882812 8.324219 20.75 C 7.839844 20.621094 7.550781 20.121094 7.683594 19.636719 L 12.390625 2.066406 C 12.519531 1.582031 13.019531 1.292969 13.503906 1.421875 Z M 13.503906 1.421875 "/>
<path style=" stroke:none;fill-rule:evenodd;fill:rgb(74.117649%,74.117649%,74.117649%);fill-opacity:1;" d="M 6.808594 5.867188 C 6.636719 5.871094 6.472656 5.945312 6.351562 6.066406 L 1.804688 10.617188 C 1.542969 10.875 1.542969 11.296875 1.804688 11.558594 L 6.351562 16.105469 C 6.519531 16.277344 6.765625 16.347656 6.996094 16.285156 C 7.230469 16.222656 7.410156 16.042969 7.472656 15.808594 C 7.53125 15.578125 7.464844 15.332031 7.292969 15.164062 L 3.214844 11.085938 L 7.292969 7.011719 C 7.488281 6.820312 7.550781 6.527344 7.441406 6.273438 C 7.335938 6.019531 7.082031 5.859375 6.808594 5.867188 Z M 6.808594 5.867188 "/>
<path style=" stroke:none;fill-rule:evenodd;fill:rgb(74.117649%,74.117649%,74.117649%);fill-opacity:1;" d="M 15.054688 5.867188 C 15.226562 5.871094 15.390625 5.945312 15.511719 6.066406 L 20.058594 10.617188 C 20.320312 10.875 20.320312 11.296875 20.058594 11.558594 L 15.511719 16.105469 C 15.34375 16.277344 15.097656 16.347656 14.863281 16.285156 C 14.632812 16.222656 14.453125 16.042969 14.390625 15.808594 C 14.328125 15.578125 14.398438 15.332031 14.570312 15.164062 L 18.648438 11.085938 L 14.570312 7.011719 C 14.371094 6.820312 14.3125 6.527344 14.421875 6.273438 C 14.527344 6.019531 14.777344 5.859375 15.054688 5.867188 Z M 15.054688 5.867188 "/>
</g>
</svg>

<svg xmlns="http://www.w3.org/2000/svg" width="22pt" height="22pt" viewBox="0 0 22 22"><path d="M13.504 1.422a.911.911 0 0 1 .644 1.113L9.441 20.11a.91.91 0 0 1-1.757-.472l4.707-17.57a.911.911 0 0 1 1.113-.645zm0 0" fill="#78909c" fill-opacity=".984"/><path d="M6.809 5.867a.673.673 0 0 0-.457.2l-4.547 4.55a.663.663 0 0 0 0 .942l4.547 4.546a.66.66 0 0 0 .644.18.668.668 0 0 0 .477-.476.67.67 0 0 0-.18-.645l-4.078-4.078 4.078-4.074a.666.666 0 0 0-.484-1.145zm0 0M15.055 5.867a.673.673 0 0 1 .457.2l4.547 4.55a.663.663 0 0 1 0 .942l-4.547 4.546a.665.665 0 1 1-.942-.94l4.078-4.08-4.078-4.073a.66.66 0 0 1-.148-.739.66.66 0 0 1 .633-.406zm0 0" fill-rule="evenodd" fill="#bdbdbd"/></svg>
